awesome/themes/default/status/battery-050-charging.svg

<?xml version="1.0" encoding="UTF-8" standalone="no"?>
<svg
   xmlns:dc="http://purl.org/dc/elements/1.1/"
   xmlns:cc="http://creativecommons.org/ns#"
   xmlns:rdf="http://www.w3.org/1999/02/22-rdf-syntax-ns#"
   xmlns:svg="http://www.w3.org/2000/svg"
   xmlns="http://www.w3.org/2000/svg"
   id="svg2340"
   version="1.1"
   width="22"
   height="22">
  <metadata
     id="metadata2344">
    <rdf:RDF>
      <cc:Work
         rdf:about="">
        <dc:format>image/svg+xml</dc:format>
        <dc:type
           rdf:resource="http://purl.org/dc/dcmitype/StillImage" />
        <dc:title></dc:title>
      </cc:Work>
    </rdf:RDF>
  </metadata>
  <defs
     id="defs1">
    <style
       id="current-color-scheme"
       type="text/css">
            .ColorScheme-Text {
                color:#eff0f1;
            }
            .ColorScheme-PositiveText {
                color:#27ae60;
            }
        </style>
  </defs>
  <path
     id="path2336"
     d="M 1 5 L 1 17 L 20 17 L 20 13 L 20.5 13 C 20.777 13 21 12.777 21 12.5 L 21 9.5 C 21 9.223 20.777 9 20.5 9 L 20 9 L 20 5 L 4 5 L 1 5 z M 2 6 L 19 6 L 19 16 L 2 16 L 2 6 z M 3 7 L 3 15 L 11 15 L 10.671875 13.685547 A 3 3 0 0 1 9.1757812 12 L 8 12 L 8 10 L 9.1738281 10 A 3 3 0 0 1 9.5644531 9.2578125 L 9 7 L 3 7 z M 9.5644531 9.2578125 L 10.671875 13.685547 A 3 3 0 0 0 12 14 L 12 13 L 14 13 L 14 12 L 12 12 L 12 10 L 14 10 L 14 9 L 12 9 L 12 8 A 3 3 0 0 0 9.5644531 9.2578125 z "
     style="fill:#04ced4;fill-opacity:1;stroke:none" />
</svg>

<svg xmlns="http://www.w3.org/2000/svg" height="22" width="22">
    <defs id="defs1">
        <style type="text/css" id="current-color-scheme">
            .ColorScheme-Text {
                color:#eff0f1;
            }
            .ColorScheme-PositiveText {
                color:#27ae60;
            }
        </style>
    </defs>
    <path style="fill:currentColor;fill-opacity:1;stroke:none" class="ColorScheme-Text" d="M3 7v8h8L9 7zM1 5v12h19v-4h.5c.277 0 .5-.223.5-.5v-3c0-.277-.223-.5-.5-.5H20V5H4zm1 1h17v10H2z" fill-rule="evenodd"/><path d="M12 8a3 3 0 0 0-2.826 2H8v2h1.176A3 3 0 0 0 12 14v-1h2v-1h-2v-2h2V9h-2z" class="ColorScheme-PositiveText" fill="currentColor"/></svg>
